Resources/Private/Icons/solid/yin-yang.svg

<svg xmlns="http://www.w3.org/2000/svg" viewBox="0 0 512 512"><!--! Font Awesome Free 6.1.1 by @fontawesome - https://fontawesome.com License - https://fontawesome.com/license/free (Icons: CC BY 4.0, Fonts: SIL OFL 1.1, Code: MIT License) Copyright 2022 Fonticons, Inc. --><path d="M256 128C238.3 128 224 142.4 224 160S238.3 192 256 192s31.97-14.38 31.97-32S273.7 128 256 128zM256 0C114.6 0 0 114.6 0 256s114.6 256 256 256s256-114.6 256-256S397.4 0 256 0zM256 384c-17.68 0-31.97-14.38-31.97-32S238.3 320 256 320s31.97 14.38 31.97 32S273.7 384 256 384zM256 256c-53.04 0-96.03 43-96.03 96S202.1 448 256 448c-106.1 0-192.1-86-192.1-192S149.9 64 256 64c53.04 0 96.03 43 96.03 96S309 256 256 256z"/></svg>

<svg xmlns="http://www.w3.org/2000/svg" viewBox="0 0 512 512"><!--! Font Awesome Free 6.2.0 by @fontawesome - https://fontawesome.com License - https://fontawesome.com/license/free (Icons: CC BY 4.0, Fonts: SIL OFL 1.1, Code: MIT License) Copyright 2022 Fonticons, Inc. --><path d="M256 64c53 0 96 43 96 96s-43 96-96 96s-96 43-96 96s43 96 96 96C150 448 64 362 64 256S150 64 256 64zm0 448c141.4 0 256-114.6 256-256S397.4 0 256 0S0 114.6 0 256S114.6 512 256 512zm32-352c0-17.7-14.3-32-32-32s-32 14.3-32 32s14.3 32 32 32s32-14.3 32-32zm0 192c0 17.7-14.3 32-32 32s-32-14.3-32-32s14.3-32 32-32s32 14.3 32 32z"/></svg>
